images/footer_images/Real guest.svg

<svg width="92" height="84" viewBox="0 0 92 84" fill="none" xmlns="http://www.w3.org/2000/svg">
<path d="M83.4998 29.3333H57.2082L61.1665 10.2917L61.2915 8.95833C61.2915 7.25 60.5832 5.66667 59.4582 4.54167L55.0415 0.166667L27.6248 27.625C26.0832 29.125 25.1665 31.2083 25.1665 33.5V75.1667C25.1665 79.75 28.9165 83.5 33.4998 83.5H70.9998C74.4582 83.5 77.4165 81.4167 78.6665 78.4167L91.2498 49.0417C91.6248 48.0833 91.8332 47.0833 91.8332 46V37.6667C91.8332 33.0833 88.0832 29.3333 83.4998 29.3333ZM83.4998 46L70.9998 75.1667H33.4998V33.5L51.5832 15.4167L46.9582 37.6667H83.4998V46ZM0.166504 33.5H16.8332V83.5H0.166504V33.5Z" fill="#3077C6"/>
</svg>

<svg width="92" height="84" fill="none" xmlns="http://www.w3.org/2000/svg"><path d="M83.5 29.333H57.208l3.959-19.041.124-1.334a6.272 6.272 0 00-1.833-4.416L55.042.167 27.624 27.625a8.147 8.147 0 00-2.459 5.875v41.667c0 4.583 3.75 8.333 8.334 8.333H71a8.277 8.277 0 007.666-5.083L91.25 49.042A8.233 8.233 0 0091.833 46v-8.333c0-4.584-3.75-8.334-8.333-8.334zM83.5 46L71 75.167H33.5V33.5l18.083-18.083-4.625 22.25H83.5V46zM.167 33.5h16.666v50H.167v-50z" fill="#3077C6"/></svg>
